X:1
T:Forster 
T:E minor                              Anonymous, 1813 
T:John Granade, 1804              86. 86. 86. 86. (C. M. D.) 
T:T ranscribed from Wyeth's Repository, Part Second , 1813 
%%score [ 1 2 3 ]
L:1/8
Q:1/4=90
M:4/4
K:G
V:1 treble nm="Tr." snm="Tr."
V:2 treble-8 nm="T." snm="T."
V:3 bass nm="B." snm="B."
V:1
 (E3 F) G2 GA | Bc d2 e2 e2 | e4 B4 | d2 A2 B2 BA | (G3 A B2) EF | G2 A2 Bc d2 | e2 e2 e4 | %7
w: 1. Ye * wea- ry, *|hea- * vy la- den|souls, Who|are op- pres- sed *|sore; * * Ye *|tra- velers thro' * the|wil- der- ness,|
w: 2. We're * of- ten *|like * the lone- some|dove, Who|mourns her ab- sent *|mate; * * From *|hill to hill, * from|vale to vale,|
 B4 d2 A2 | B2 BA (G3 A | B4) z2 B2 | g3 f e2 B2 | G3 A B2 B2 | d3 e B2 B2 | B6 d2 | e2 gf e2 BA | %15
w: To Ca- naan's|peace- ful * shore; *|* Thro'|chil- ling winds and|bea- ting rains, The|wa- ters deep and|cold, And|en- e- * mies sur- *|
w: Her sor- rows|to re- * late; *|* But|Ca- naan's land is|just be- fore, Sweet|spring is co- ming|on; A|few more * winds and *|
 G3 A B2 B2 | e2 dc B2 B2 | B8 |] %18
w: roun- ding you, Take|cou- rage * and be|bold.|
w: bea- ting rain, And|win- ter * will be|gone.|
V:2
 (G3 F) E2 EF | G2 A2 B2 B2 | B4 e4 | d2 dc B2 BA | (G3 A G2) GF | E2 EF G2 A2 | B2 B2 B4 | %7
w: 3. Me- * thinks I *|now be- gin to|see The|bar- riers * of that *|land; * * The *|trees of * life with|hea- venly fruit|
w: 4. Fare- * well, my *|bre- thren in the|Lord, Who|are to * Ca- naan *|bound; * * And *|should we * ne- ver|meet a- gain|
 e4 d2 dc | B2 BA (G3 A | G4) z2 d2 | e3 f g2 d2 | e3 f ed B2 | A3 c B2 E2 | (G3 A G2) AB | %14
w: In beau- teous *|or- der * stand; *|* The|win- tery time is|past and gone, * Sweet|flo- wers do ap-|pear; * * The *|
w: Till Ju- bal's *|trump shall * sound; *|* I|hope that I shall|meet you there, * On|that de- light- ful|shore; * * In *|
 c2 BA Bc d2 | e3 f ed B2 | A>c BA G2 F2 | E8 |] %18
w: fif- tieth * year * is|now rolled round, * The|great * Sab- * ba- tic|year.|
w: o- ceans * of * de-|light- ful bliss, * Where|par- * ting * is no|more.|
V:3
 E,4 E,2 B,,2 | G,2 F,2 E,2 E,2 | E,4 E,4 | G,2 A,2 B,2 B,,2 | E,6 E,D, | E,2 B,,2 G,2 F,2 | %6
 E,2 E,2 E,4 | E,4 G,2 A,2 | B,2 B,,2 E,4- | E,4 z2 B,2 | %10
"_____________________________________________________________________\nA folk hymn (Lowens 1964).\nAlso appears in \nSupplement to the Kentucky Harmony\n (1820), and\nMoore's \nColumbian Harmony\n.\n" C3 A, B,2 B,2 | %11
 E,3 E, E,2 E,2 | F,3 A, G,2 G,2 | E,6 F,G, | A,2 G,F, G,A, B,2 | C3 A, B,2 B,2 | %16
 C>A, G,A, B,2 B,,2 | E,8 |] %18

